static/assets/images/addons/logos/mongodb.svg

<svg width="16" height="16" viewBox="0 0 16 16" fill="none" xmlns="http://www.w3.org/2000/svg">
<path d="M13.1744 13.3492L13.0028 13.1432L11.7781 11.8271C9.11939 12.6433 6.29929 12.7849 3.57216 12.2391C2.63965 12.089 1.74317 11.7669 0.92838 11.2891C0.69211 11.1748 0.486088 11.0065 0.327016 10.7977C0.167944 10.5889 0.0602933 10.3456 0.0127873 10.0874C0.0814568 11.0946 0.0127873 12.1246 0.0127873 13.1318C-0.00298834 13.3983 0.0279987 13.6656 0.104347 13.9215C0.247512 14.2132 0.469538 14.459 0.74526 14.6311C1.44121 15.0898 2.21798 15.4122 3.03424 15.581C4.88639 16.0114 6.79824 16.1237 8.68804 15.9129C10.0946 15.8084 11.4652 15.419 12.7166 14.7684C12.8932 14.6981 13.0495 14.5849 13.1714 14.439C13.2933 14.2931 13.3769 14.1192 13.4148 13.9329C13.4018 13.717 13.3172 13.5117 13.1744 13.3492Z" fill="#1971BD"/>
<path d="M11.2402 7.4208C9.82252 7.8275 8.35447 8.0317 6.87967 8.02735C3.09138 8.02735 0.0126953 6.88285 0.0126953 5.49805V8.9315C0.0126953 10.3163 3.09138 11.4608 6.87967 11.4608C8.38077 11.4768 9.87637 11.2764 11.3203 10.8657C10.9262 9.75885 10.9021 8.55395 11.2516 7.43225L11.2402 7.4208Z" fill="#1971BD"/>
<path d="M11.8814 5.73835C12.3934 4.77743 13.0198 3.88204 13.747 3.07167C13.8116 2.82803 13.8107 2.57164 13.7444 2.32845C13.6781 2.08527 13.5486 1.86392 13.3693 1.68683C12.992 1.32095 12.533 1.05024 12.0302 0.89713C9.46225 -0.0157523 6.69925 -0.236792 4.0188 0.256215C2.78738 0.383635 1.60723 0.816355 0.58532 1.51515C0.335377 1.68649 0.143712 1.93007 0.0359624 2.21329C-0.0095495 2.49377 -0.0095495 2.77975 0.0359624 3.06022C-0.0409443 3.65848 0.0058005 4.26617 0.173302 4.84563C0.395795 5.24215 0.741275 5.5555 1.15756 5.73835C2.13781 6.2273 3.19459 6.5447 4.28203 6.6768C6.65735 7.04475 9.08375 6.9043 11.4008 6.2648C11.4992 6.24585 11.5927 6.2069 11.6755 6.15035C11.763 6.06565 11.833 5.96455 11.8814 5.8528V5.73835ZM15.3149 6.52805C15.2892 6.46105 15.2585 6.39605 15.2233 6.33345C14.9143 5.7612 14.5023 5.25765 14.1475 4.71974C14.056 4.5824 13.9644 4.44506 13.8843 4.29628C13.8507 4.2215 13.8124 4.14888 13.7698 4.07882C13.7126 4.07882 13.6669 4.07882 13.6326 4.14749C13.4265 4.41072 13.2319 4.6854 13.0374 4.97153C12.6889 5.48365 12.3899 6.02785 12.1447 6.5967C11.7353 7.5196 11.5774 8.5344 11.6869 9.53805C11.7432 10.0398 11.9012 10.5249 12.151 10.9637C12.4009 11.4025 12.7375 11.7858 13.1404 12.0903C13.2105 12.1413 13.2756 12.1988 13.335 12.2619C13.3772 12.337 13.4081 12.418 13.4265 12.5023C13.4955 12.8267 13.5414 13.1557 13.5639 13.4866H14.0102L14.0674 12.4909C14.05 12.4117 14.05 12.3296 14.0674 12.2505C14.1042 12.1833 14.155 12.1248 14.2162 12.0788C14.9835 11.3574 15.4939 10.4048 15.6698 9.36635C15.8507 8.42565 15.743 7.4522 15.3607 6.5738L15.3149 6.52805Z" fill="#1971BD"/>
</svg>

<svg xmlns="http://www.w3.org/2000/svg" width="16" height="16" fill="#1971bd" xmlns:v="https://vecta.io/nano"><path d="M13.174 13.349l-.172-.206-1.225-1.316c-2.659.816-5.479.958-8.206.412a7.62 7.62 0 0 1-2.644-.95 1.67 1.67 0 0 1-.916-1.202c.069 1.007 0 2.037 0 3.044a2.29 2.29 0 0 0 .092.79 1.74 1.74 0 0 0 .641.71 6.58 6.58 0 0 0 2.289.95 16.77 16.77 0 0 0 5.654.332c1.407-.104 2.777-.494 4.029-1.145.177-.07.333-.184.455-.329a1.14 1.14 0 0 0 .243-.506.98.98 0 0 0-.24-.584zM11.24 7.421a15.65 15.65 0 0 1-4.361.607C3.091 8.028.012 6.884.012 5.499v3.433c0 1.385 3.079 2.529 6.867 2.529 1.501.016 2.997-.184 4.441-.595a5.43 5.43 0 0 1-.069-3.433l-.011-.011z"/><path d="M11.881 5.738a13.49 13.49 0 0 1 1.866-2.667 1.43 1.43 0 0 0-.378-1.385 3.31 3.31 0 0 0-1.339-.79A15.53 15.53 0 0 0 4.019.256 7.44 7.44 0 0 0 .585 1.515a1.49 1.49 0 0 0-.549.698c-.046.28-.046.566 0 .847-.077.598-.03 1.206.137 1.785.222.397.568.71.984.893a9.59 9.59 0 0 0 3.124.938c2.375.368 4.802.228 7.119-.412.098-.019.192-.058.275-.114.088-.085.158-.186.206-.298v-.114zm3.434.79c-.026-.067-.056-.132-.092-.195-.309-.572-.721-1.076-1.076-1.614l-.263-.423c-.034-.075-.072-.147-.114-.217-.057 0-.103 0-.137.069l-.595.824c-.348.512-.647 1.056-.893 1.625-.409.923-.567 1.938-.458 2.941a3.72 3.72 0 0 0 1.454 2.552 1.39 1.39 0 0 1 .195.172.87.87 0 0 1 .091.24 7.02 7.02 0 0 1 .137.984h.446l.057-.996a.56.56 0 0 1 0-.24.54.54 0 0 1 .149-.172 4.83 4.83 0 0 0 1.454-2.712 4.75 4.75 0 0 0-.309-2.793l-.046-.046z"/></svg>
